X:1
T:Title
%%score { ( 1 4 ) | ( 2 3 ) }
L:1/8
M:4/4
K:D
V:1 treble nm="Grand Piano"
V:4 treble 
V:2 bass 
V:3 bass 
V:1
 z4 z2[Q:1/4=100] F2 | A2 C2 D2 d2 | B2 G2 F2[K:bass] .[A,CE]2 | [F,D]6[K:treble] [A,CE]2 | %4
 [A,DF]2 [B,DF]2 [B,E^G]2 [B,EG]2 | [A,EA]2 A2 d2 c2 | B2- [EB-][DB] [CA]2 F2 | A2 C2 D2 d2 | %8
 B2 G2 F2[K:bass] .[A,CE]2 | [F,D]6[K:treble] [A,CE]2 | [A,DF]2 [B,DF]2 [B,E^G]2 [B,EG]2 | %11
 [A,EA]2 A2 d2 c2 | F2 z2 z2 A2 | d2 [F=c]2 [GB]2 [GB]2 | [Ac]2 [Ad]2 [^Ge]2 d2 | z4 z2 d2 | %16
 z4 [CE]4 |[M:7/4][K:bass] [F,D]6 z2 z2 z4 |[M:4/4] [G,B,D]4 [F,A,D]4 |] %19
V:2
 z4 z2 [D,A,D]2 | [D,F,D]2 [E,G,A,]2 [F,A,]2 [D,F,D]2 | [G,D]2 [G,B,E]2 [A,D]2 z G, | D,6 A,,2 | %4
 D,2 B,,2 E,2 D,2 | C,2 [F,CF]2 [^G,B,E]2 [A,E]2 | [D,A,]2 [E,^G,]2 [A,,A,]2 [D,A,D]2 | %7
 [D,F,D]2 [E,G,A,]2 [F,A,]2 [D,F,D]2 | [G,D]2 [G,B,E]2 [A,D]2 z G, | D,6 A,,2 | D,2 B,,2 E,2 D,2 | %11
 C,2 [F,CF]2 [^G,B,E]2 [A,E]2 | z4 z2 A,2 | [F,A,D]2 [D,D]2 [G,D]2 [G,D]2 | %14
 [G,E]2 [F,D]2 [E,B,]2 [^G,B,E]2 | [A,E]6 D-[G,D] | A,4 z2 G,2 |[M:7/4] D,6 z2 z2 z4 | %18
[M:4/4] G,,4 D,4 |] %19
V:3
 x8 | x8 | z4 z2 A,,2 | x8 | x8 | x8 | x8 | x8 | z4 z2 A,,2 | x8 | x8 | x8 | %12
 [D,A,]2 [E,^G,]2 A,,2 z G, | x8 | x8 | z4 z2 .[F,A,]2 | z4 A,,4 |[M:7/4] x14 |[M:4/4] x8 |] %19
V:4
 x8 | x8 | x6[K:bass] x2 | x6[K:treble] x2 | x8 | x8 | F2 z2 z4 | x8 | x6[K:bass] x2 | %9
 x6[K:treble] x2 | x8 | x8 | B2- [EB-][DB] [A,CA]2 CE | x8 | x8 | c6 z B, | [DF]4 A,2 z2 | %17
[M:7/4][K:bass] x14 |[M:4/4] x8 |] %19

